dist/svgs/crypto-icons/icons/gdc.svg

<?xml version="1.0" encoding="UTF-8" standalone="yes"?>
<svg xmlns="http://www.w3.org/2000/svg" xmlns:xlink="http://www.w3.org/1999/xlink" width="512px" height="512px" viewBox="0 0 384 384" version="1.1">
  <g id="surface1">
    <path style=" stroke:none;fill-rule:nonzero;fill:rgb(0%,0%,0%);fill-opacity:1;" d="M 236.1875 295.394531 C 266.019531 295.394531 290.285156 271.128906 290.285156 241.296875 C 290.285156 211.46875 266.015625 187.199219 236.1875 187.199219 C 210.707031 187.199219 189.335938 204.9375 183.636719 228.691406 L 63.921875 228.691406 L 63.921875 66.703125 L 183.636719 66.703125 C 189.335938 90.457031 210.707031 108.191406 236.1875 108.191406 C 266.019531 108.191406 290.285156 83.921875 290.285156 54.09375 C 290.285156 24.265625 266.019531 0 236.1875 0 C 210.707031 0 189.335938 17.730469 183.636719 41.488281 L 38.714844 41.488281 L 38.714844 253.90625 L 183.632812 253.90625 C 189.335938 277.660156 210.707031 295.394531 236.1875 295.394531 Z M 236.1875 212.410156 C 252.117188 212.410156 265.078125 225.367188 265.078125 241.296875 C 265.078125 257.226562 252.117188 270.183594 236.1875 270.183594 C 220.261719 270.183594 207.300781 257.226562 207.300781 241.296875 C 207.300781 225.367188 220.261719 212.410156 236.1875 212.410156 Z M 236.1875 25.207031 C 252.117188 25.207031 265.078125 38.171875 265.078125 54.097656 C 265.078125 70.027344 252.117188 82.984375 236.1875 82.984375 C 220.261719 82.984375 207.300781 70.023438 207.300781 54.097656 C 207.300781 38.167969 220.261719 25.207031 236.1875 25.207031 Z M 236.1875 25.207031 "/>
    <path style=" stroke:none;fill-rule:nonzero;fill:rgb(0%,0%,0%);fill-opacity:1;" d="M 344.90625 129.722656 L 199.984375 129.722656 C 194.28125 105.960938 172.914062 88.234375 147.429688 88.234375 C 117.601562 88.234375 93.335938 112.5 93.335938 142.328125 C 93.335938 172.160156 117.601562 196.425781 147.429688 196.425781 C 172.914062 196.425781 194.28125 178.691406 199.984375 154.929688 L 319.699219 154.929688 L 319.699219 316.925781 L 199.984375 316.925781 C 194.28125 293.164062 172.914062 275.433594 147.429688 275.433594 C 117.601562 275.433594 93.335938 299.703125 93.335938 329.53125 C 93.335938 359.363281 117.601562 383.628906 147.429688 383.628906 C 172.914062 383.628906 194.28125 365.894531 199.984375 342.136719 L 344.90625 342.136719 Z M 147.429688 171.214844 C 131.5 171.214844 118.542969 158.261719 118.542969 142.328125 C 118.542969 126.402344 131.503906 113.441406 147.429688 113.441406 C 163.359375 113.441406 176.320312 126.402344 176.320312 142.328125 C 176.320312 158.261719 163.359375 171.214844 147.429688 171.214844 Z M 147.429688 358.421875 C 131.5 358.421875 118.542969 345.464844 118.542969 329.53125 C 118.542969 313.601562 131.503906 300.648438 147.429688 300.648438 C 163.359375 300.648438 176.320312 313.601562 176.320312 329.53125 C 176.320312 345.464844 163.359375 358.421875 147.429688 358.421875 Z M 147.429688 358.421875 "/>
  </g>
</svg>

<svg xmlns="http://www.w3.org/2000/svg" viewBox="0 0 384 384"><path d="M236.188 295.395c29.832 0 54.097-24.266 54.097-54.098 0-29.828-24.27-54.098-54.098-54.098-25.48 0-46.851 17.738-52.55 41.492H63.922V66.703h119.715c5.699 23.754 27.07 41.488 52.55 41.488 29.833 0 54.098-24.27 54.098-54.097C290.285 24.266 266.02 0 236.187 0c-25.48 0-46.851 17.73-52.55 41.488H38.715v212.418h144.918c5.703 23.754 27.074 41.489 52.554 41.489zm0-82.985c15.93 0 28.89 12.957 28.89 28.887s-12.96 28.887-28.89 28.887c-15.926 0-28.887-12.957-28.887-28.887s12.96-28.887 28.887-28.887zm0-187.203c15.93 0 28.89 12.965 28.89 28.89 0 15.93-12.96 28.887-28.89 28.887-15.926 0-28.887-12.96-28.887-28.886 0-15.93 12.96-28.891 28.887-28.891zm0 0"/><path d="M344.906 129.723H199.984c-5.703-23.762-27.07-41.489-52.554-41.489-29.828 0-54.094 24.266-54.094 54.094 0 29.832 24.266 54.098 54.094 54.098 25.484 0 46.851-17.735 52.554-41.496H319.7v161.996H199.984c-5.703-23.762-27.07-41.492-52.554-41.492-29.828 0-54.094 24.27-54.094 54.097 0 29.832 24.266 54.098 54.094 54.098 25.484 0 46.851-17.734 52.554-41.492h144.922zM147.43 171.215c-15.93 0-28.887-12.953-28.887-28.887 0-15.926 12.96-28.887 28.887-28.887 15.93 0 28.89 12.961 28.89 28.887 0 15.934-12.96 28.887-28.89 28.887zm0 187.207c-15.93 0-28.887-12.957-28.887-28.89 0-15.93 12.96-28.884 28.887-28.884 15.93 0 28.89 12.954 28.89 28.883 0 15.934-12.96 28.89-28.89 28.89zm0 0"/></svg>
